X: 01018
T: CATHY SUE
C: Bob McQuillen July '74
B: Bob's Note Book 1 #18
%R: jig
Z: 2019 John Chambers <jc:trillian.mit.edu>
M: 6/8
L: 1/8
K: G
DE \
| GFG ABA | GAG FED | GFG ABc | ded cBA |\
| GFG ABA | GAG FED | GAB cBA | BGG G :|
|: dc \
| Bee def | gag fed | Bee def | gfg edc |\
| Bee def | gag fed | ebb agf | gee e :|
%%begintext align
%% For Sue Koallick xx
%% and Cathy La Roche 00
%%endtext

%%sep 1 1 500

%%sep 1 1 500

